public/images/hashed/8ba2e0a759f5d6650d837ea163603c46.svg

<svg xmlns="http://www.w3.org/2000/svg" width="80" height="80"><defs><linearGradient id="a" x1="0%" x2="100%" y1="100%" y2="0%"><stop offset="0%" stop-color="#1B660F"/><stop offset="100%" stop-color="#6CAE3E"/></linearGradient></defs><g fill="none" fill-rule="evenodd"><path fill="url(#a)" d="M0 0h80v80H0z"/><path fill="#FFF" d="M44 40h7v-2h-7v2Zm15 0h4v-2h-4v2Zm-15-5h12v-2H44v2ZM18 64c-1.513 0-3-1.486-3-3s1.487-3 3-3c1.514 0 3 1.486 3 3s-1.486 3-3 3Zm0-14c-1.513 0-3-1.486-3-3s1.487-3 3-3c1.514 0 3 1.486 3 3s-1.486 3-3 3Zm0-14c-1.513 0-3-1.486-3-3s1.487-3 3-3c1.514 0 3 1.486 3 3s-1.486 3-3 3Zm0-14c-1.458 0-3-1.542-3-3s1.542-3 3-3 3 1.542 3 3-1.542 3-3 3Zm36 26v-2H31V19a1 1 0 0 0-1-1h-7.123c-.519-2.166-2.644-4-4.877-4-2.57 0-5 2.43-5 5s2.43 5 5 5c2.233 0 4.358-1.834 4.877-4H29v12h-6.119c-.506-2.193-2.602-4-4.881-4-2.617 0-5 2.383-5 5s2.383 5 5 5c2.279 0 4.375-1.807 4.881-4H29v12h-6.119c-.506-2.193-2.602-4-4.881-4-2.617 0-5 2.383-5 5s2.383 5 5 5c2.279 0 4.375-1.807 4.881-4H29v12h-6.119c-.506-2.193-2.602-4-4.881-4-2.617 0-5 2.383-5 5s2.383 5 5 5c2.279 0 4.375-1.807 4.881-4H30a1 1 0 0 0 1-1V48h23Zm2 0h7v-2h-7v2Zm3-13h3.802v-2H59v2Zm-1-8v-5.586L63.586 27H58Zm8.989.938a1.011 1.011 0 0 0-.053-.259c-.01-.032-.019-.062-.032-.093a1 1 0 0 0-.197-.293l-9-9a.99.99 0 0 0-.292-.195c-.031-.015-.063-.023-.096-.035a.995.995 0 0 0-.254-.05C57.042 18.011 57.023 18 57 18H40a1 1 0 0 0-1 1v25h2V20h15v8a1 1 0 0 0 1 1h8v31H41V50h-2v11a1 1 0 0 0 1 1h26a1 1 0 0 0 1-1V28c0-.021-.01-.041-.011-.062Z"/></g></svg>

<?xml version="1.0" encoding="UTF-8"?>
<svg width="80px" height="80px" viewBox="0 0 80 80" version="1.1" xmlns="http://www.w3.org/2000/svg" xmlns:xlink="http://www.w3.org/1999/xlink">
    <!-- Generator: Sketch 64 (93537) - https://sketch.com -->
    <title>Icon-Architecture/64/Arch_AWS-Cost-and-Usage-Report_64</title>
    <desc>Created with Sketch.</desc>
    <defs>
        <linearGradient x1="0%" y1="100%" x2="100%" y2="0%" id="linearGradient-1">
            <stop stop-color="#1B660F" offset="0%"></stop>
            <stop stop-color="#6CAE3E" offset="100%"></stop>
        </linearGradient>
    </defs>
    <g id="Icon-Architecture/64/Arch_AWS-Cost-and-Usage-Report_64" stroke="none" stroke-width="1" fill="none" fill-rule="evenodd">
        <g id="Icon-Architecture-BG/64/AWS-Cost-Management" fill="url(#linearGradient-1)">
            <rect id="Rectangle" x="0" y="0" width="80" height="80"></rect>
        </g>
        <path d="M44,40 L51,40 L51,38 L44,38 L44,40 Z M59,40 L63,40 L63,38 L59,38 L59,40 Z M44,35 L56,35 L56,33 L44,33 L44,35 Z M18,64 C16.487,64 15,62.514 15,61 C15,59.486 16.487,58 18,58 C19.514,58 21,59.486 21,61 C21,62.514 19.514,64 18,64 L18,64 Z M18,50 C16.487,50 15,48.514 15,47 C15,45.486 16.487,44 18,44 C19.514,44 21,45.486 21,47 C21,48.514 19.514,50 18,50 L18,50 Z M18,36 C16.487,36 15,34.514 15,33 C15,31.486 16.487,30 18,30 C19.514,30 21,31.486 21,33 C21,34.514 19.514,36 18,36 L18,36 Z M18,22 C16.542,22 15,20.458 15,19 C15,17.542 16.542,16 18,16 C19.458,16 21,17.542 21,19 C21,20.458 19.458,22 18,22 L18,22 Z M54,48 L54,46 L31,46 L31,19 C31,18.448 30.553,18 30,18 L22.877,18 C22.358,15.834 20.233,14 18,14 C15.43,14 13,16.43 13,19 C13,21.57 15.43,24 18,24 C20.233,24 22.358,22.166 22.877,20 L29,20 L29,32 L22.881,32 C22.375,29.807 20.279,28 18,28 C15.383,28 13,30.383 13,33 C13,35.617 15.383,38 18,38 C20.279,38 22.375,36.193 22.881,34 L29,34 L29,46 L22.881,46 C22.375,43.807 20.279,42 18,42 C15.383,42 13,44.383 13,47 C13,49.617 15.383,52 18,52 C20.279,52 22.375,50.193 22.881,48 L29,48 L29,60 L22.881,60 C22.375,57.807 20.279,56 18,56 C15.383,56 13,58.383 13,61 C13,63.617 15.383,66 18,66 C20.279,66 22.375,64.193 22.881,62 L30,62 C30.553,62 31,61.552 31,61 L31,48 L54,48 Z M56,48 L63,48 L63,46 L56,46 L56,48 Z M59,35 L62.802,35 L62.802,33 L59,33 L59,35 Z M58,27 L58,21.414 L63.586,27 L58,27 Z M66.989,27.938 C66.983,27.85 66.965,27.764 66.936,27.679 C66.926,27.647 66.917,27.617 66.904,27.586 C66.855,27.48 66.793,27.379 66.707,27.293 L57.707,18.293 C57.621,18.208 57.521,18.146 57.415,18.098 C57.384,18.083 57.352,18.075 57.319,18.063 C57.237,18.035 57.152,18.019 57.065,18.013 C57.042,18.011 57.023,18 57,18 L40,18 C39.448,18 39,18.448 39,19 L39,44 L41,44 L41,20 L56,20 L56,28 C56,28.552 56.448,29 57,29 L65,29 L65,60 L41,60 L41,50 L39,50 L39,61 C39,61.552 39.448,62 40,62 L66,62 C66.553,62 67,61.552 67,61 L67,28 C67,27.979 66.99,27.959 66.989,27.938 L66.989,27.938 Z" id="AWS-Cost-and-Usage-Report_Icon_64_Squid" fill="#FFFFFF"></path>
    </g>
</svg>
